usr/share/icons/biglinux-icons-material/scalable/apps/libreoffice-calc.svg

<svg width="24" height="24" viewBox="0 0 24 24" fill="none" xmlns="http://www.w3.org/2000/svg">
<path fill-rule="evenodd" clip-rule="evenodd" d="M9.59604 1.11359C9.71588 1.11486 9.83043 1.0996 9.93969 1.06779C11.3755 0.973736 12.8111 0.977551 14.2467 1.07924C15.5484 1.18066 16.8085 1.46308 18.0269 1.9265C20.0525 2.76044 21.4386 4.2069 22.185 6.26586C22.6119 7.50549 22.8639 8.78021 22.9411 10.09C23.0478 11.7347 23.0096 13.3758 22.8265 15.0133C22.6895 16.1642 22.3916 17.271 21.933 18.3336C21.0824 20.1761 19.704 21.447 17.7978 22.1463C16.2531 22.6682 14.6647 22.943 13.0325 22.9706C11.1966 23.0661 9.37913 22.9287 7.57997 22.5585C4.26839 21.8208 2.22559 19.8018 1.45158 16.5017C1.12311 15.0161 0.974199 13.5124 1.00483 11.9906C0.968176 10.3724 1.14 8.77709 1.52031 7.20471C2.33171 4.11908 4.2905 2.20701 7.39669 1.46852C8.12048 1.29157 8.8536 1.17326 9.59604 1.11359Z" fill="url(#paint0_radial_1_5)"/>
<path d="M5.58333 18.1111H18.4167V7.41667H5.58333V18.1111ZM6.65278 8.4862H8.79164V10.6251H6.65278V8.4862ZM9.86116 8.4862H17.3473V10.6251H9.86116V8.4862ZM6.65278 11.6946H8.79164V13.8334H6.65278V11.6946ZM9.86116 11.6946H17.3473V13.8334H9.86116V11.6946ZM6.65278 14.903H8.79164V17.0418H6.65278V14.903ZM9.86116 14.903H17.3473V17.0418H9.86116V14.903Z" fill="#FAFAFA"/>
<defs>
<radialGradient id="paint0_radial_1_5" cx="0" cy="0" r="1" gradientUnits="userSpaceOnUse" gradientTransform="translate(12 1) rotate(90) scale(11)">
<stop stop-color="#8ACB8D"/>
<stop offset="1" stop-color="#4CAF50"/>
</radialGradient>
</defs>
</svg>

<svg xmlns="http://www.w3.org/2000/svg" width="24" height="24" fill="none"><path fill="url(#a)" fill-rule="evenodd" d="M9.596 1.114c.12 0 .234-.014.344-.046a31.627 31.627 0 0 1 4.307.011c1.301.102 2.561.384 3.78.848 2.025.833 3.412 2.28 4.158 4.339.427 1.24.679 2.514.756 3.824a27.94 27.94 0 0 1-.114 4.923 11.88 11.88 0 0 1-.894 3.32c-.85 1.843-2.229 3.114-4.135 3.813a15.624 15.624 0 0 1-4.765.825 21.423 21.423 0 0 1-5.453-.413c-3.312-.737-5.354-2.756-6.128-6.056a19.047 19.047 0 0 1-.447-4.511 18.491 18.491 0 0 1 .515-4.786c.812-3.086 2.77-4.998 5.877-5.736a13.953 13.953 0 0 1 2.199-.355Z" clip-rule="evenodd"/><path fill="#FAFAFA" d="M5.583 18.111h12.834V7.417H5.583V18.11Zm1.07-9.625h2.139v2.14h-2.14v-2.14Zm3.208 0h7.486v2.14H9.861v-2.14Zm-3.208 3.209h2.139v2.138h-2.14v-2.138Zm3.208 0h7.486v2.138H9.861v-2.138Zm-3.208 3.208h2.139v2.139h-2.14v-2.139Zm3.208 0h7.486v2.139H9.861v-2.139Z"/><defs><radialGradient id="a" cx="0" cy="0" r="1" gradientTransform="matrix(0 11 -11 0 12 1)" gradientUnits="userSpaceOnUse"><stop stop-color="#8ACB8D"/><stop offset="1" stop-color="#4CAF50"/></radialGradient></defs></svg>
